assets/assets/svgs/linkedin_icon.svg

<svg width="24" height="24" viewBox="0 0 24 24" fill="none" xmlns="http://www.w3.org/2000/svg">
<path d="M20.3073 2.25H3.68883C3.68363 2.25 3.67778 2.25 3.67128 2.25C2.89172 2.25 2.2591 2.87677 2.25 3.65372V20.345C2.2591 21.1226 2.89172 21.75 3.67128 21.75C3.67778 21.75 3.68363 21.75 3.69013 21.75H20.3053C20.3105 21.75 20.317 21.75 20.3235 21.75C21.1037 21.75 21.7376 21.1239 21.75 20.3463V20.345V3.65502C21.7376 2.87677 21.1037 2.25 20.3229 2.25C20.3164 2.25 20.3105 2.25 20.304 2.25H20.3073ZM8.03329 18.8671H5.13742V9.5625H8.03329V18.8671ZM6.58601 8.28946C5.65951 8.28946 4.90921 7.53851 4.90921 6.61266C4.90921 5.68682 5.66016 4.93587 6.58601 4.93587C7.51185 4.93587 8.2628 5.68617 8.2628 6.61201C8.2628 6.61266 8.2628 6.61331 8.2628 6.61461C8.2628 7.53981 7.5125 8.29011 6.58731 8.29011C6.58666 8.29011 6.58601 8.29011 6.58536 8.29011L6.58601 8.28946ZM18.8626 18.8671H15.9752V14.3426C15.9752 13.2633 15.9531 11.8752 14.4707 11.8752C12.9649 11.8752 12.7353 13.0494 12.7353 14.2633V18.8678H9.84793V9.56315H12.6216V10.8316H12.6593C13.1976 9.92465 14.1716 9.32649 15.2853 9.32649C15.325 9.32649 15.364 9.32714 15.403 9.32844H15.3972C18.3229 9.32844 18.8639 11.2543 18.8639 13.7607V18.8678L18.8626 18.8671Z" fill="#2D9CDB"/>
</svg>

<svg xmlns="http://www.w3.org/2000/svg" width="24" height="24" fill="none" xmlns:v="https://vecta.io/nano"><path d="M20.307 2.25H3.689c-.797 0-1.43.627-1.439 1.404v16.691a1.42 1.42 0 0 0 1.421 1.405h16.634a1.43 1.43 0 0 0 1.445-1.404v-.001-16.69a1.43 1.43 0 0 0-1.427-1.405h-.016zM8.033 18.867H5.137V9.563h2.896v9.305zM6.586 8.289c-.926 0-1.677-.751-1.677-1.677a1.68 1.68 0 0 1 1.677-1.677c.926 0 1.677.75 1.677 1.676S7.513 8.29 6.587 8.29l-.001-.001zm12.277 10.578h-2.887v-4.525c0-1.079-.022-2.467-1.504-2.467-1.506 0-1.735 1.174-1.735 2.388v4.605H9.848V9.563h2.774v1.268h.038c.538-.907 1.512-1.505 2.626-1.505l.118.002h-.006c2.926 0 3.467 1.926 3.467 4.432v5.107l-.001-.001z" fill="#2d9cdb"/></svg>
